icons/unload-truck.svg

<!-- Generated by IcoMoon.io -->
<svg version="1.1" xmlns="http://www.w3.org/2000/svg" width="512" height="512" viewBox="0 0 512 512">
<title></title>
<g id="icomoon-ignore">
    <line stroke-width="1" x1="16" y1="0" x2="16" y2="512" stroke="#449FDB" opacity="0.3"></line>
    <line stroke-width="1" x1="32" y1="0" x2="32" y2="512" stroke="#449FDB" opacity="1"></line>
    <line stroke-width="1" x1="48" y1="0" x2="48" y2="512" stroke="#449FDB" opacity="0.3"></line>
    <line stroke-width="1" x1="64" y1="0" x2="64" y2="512" stroke="#449FDB" opacity="1"></line>
    <line stroke-width="1" x1="80" y1="0" x2="80" y2="512" stroke="#449FDB" opacity="0.3"></line>
    <line stroke-width="1" x1="96" y1="0" x2="96" y2="512" stroke="#449FDB" opacity="1"></line>
    <line stroke-width="1" x1="112" y1="0" x2="112" y2="512" stroke="#449FDB" opacity="0.3"></line>
    <line stroke-width="1" x1="128" y1="0" x2="128" y2="512" stroke="#449FDB" opacity="1"></line>
    <line stroke-width="1" x1="144" y1="0" x2="144" y2="512" stroke="#449FDB" opacity="0.3"></line>
    <line stroke-width="1" x1="160" y1="0" x2="160" y2="512" stroke="#449FDB" opacity="1"></line>
    <line stroke-width="1" x1="176" y1="0" x2="176" y2="512" stroke="#449FDB" opacity="0.3"></line>
    <line stroke-width="1" x1="192" y1="0" x2="192" y2="512" stroke="#449FDB" opacity="1"></line>
    <line stroke-width="1" x1="208" y1="0" x2="208" y2="512" stroke="#449FDB" opacity="0.3"></line>
    <line stroke-width="1" x1="224" y1="0" x2="224" y2="512" stroke="#449FDB" opacity="1"></line>
    <line stroke-width="1" x1="240" y1="0" x2="240" y2="512" stroke="#449FDB" opacity="0.3"></line>
    <line stroke-width="1" x1="256" y1="0" x2="256" y2="512" stroke="#449FDB" opacity="1"></line>
    <line stroke-width="1" x1="272" y1="0" x2="272" y2="512" stroke="#449FDB" opacity="0.3"></line>
    <line stroke-width="1" x1="288" y1="0" x2="288" y2="512" stroke="#449FDB" opacity="1"></line>
    <line stroke-width="1" x1="304" y1="0" x2="304" y2="512" stroke="#449FDB" opacity="0.3"></line>
    <line stroke-width="1" x1="320" y1="0" x2="320" y2="512" stroke="#449FDB" opacity="1"></line>
    <line stroke-width="1" x1="336" y1="0" x2="336" y2="512" stroke="#449FDB" opacity="0.3"></line>
    <line stroke-width="1" x1="352" y1="0" x2="352" y2="512" stroke="#449FDB" opacity="1"></line>
    <line stroke-width="1" x1="368" y1="0" x2="368" y2="512" stroke="#449FDB" opacity="0.3"></line>
    <line stroke-width="1" x1="384" y1="0" x2="384" y2="512" stroke="#449FDB" opacity="1"></line>
    <line stroke-width="1" x1="400" y1="0" x2="400" y2="512" stroke="#449FDB" opacity="0.3"></line>
    <line stroke-width="1" x1="416" y1="0" x2="416" y2="512" stroke="#449FDB" opacity="1"></line>
    <line stroke-width="1" x1="432" y1="0" x2="432" y2="512" stroke="#449FDB" opacity="0.3"></line>
    <line stroke-width="1" x1="448" y1="0" x2="448" y2="512" stroke="#449FDB" opacity="1"></line>
    <line stroke-width="1" x1="464" y1="0" x2="464" y2="512" stroke="#449FDB" opacity="0.3"></line>
    <line stroke-width="1" x1="480" y1="0" x2="480" y2="512" stroke="#449FDB" opacity="1"></line>
    <line stroke-width="1" x1="496" y1="0" x2="496" y2="512" stroke="#449FDB" opacity="0.3"></line>
    <line stroke-width="1" x1="0" y1="16" x2="512" y2="16" stroke="#449FDB" opacity="0.3"></line>
    <line stroke-width="1" x1="0" y1="32" x2="512" y2="32" stroke="#449FDB" opacity="1"></line>
    <line stroke-width="1" x1="0" y1="48" x2="512" y2="48" stroke="#449FDB" opacity="0.3"></line>
    <line stroke-width="1" x1="0" y1="64" x2="512" y2="64" stroke="#449FDB" opacity="1"></line>
    <line stroke-width="1" x1="0" y1="80" x2="512" y2="80" stroke="#449FDB" opacity="0.3"></line>
    <line stroke-width="1" x1="0" y1="96" x2="512" y2="96" stroke="#449FDB" opacity="1"></line>
    <line stroke-width="1" x1="0" y1="112" x2="512" y2="112" stroke="#449FDB" opacity="0.3"></line>
    <line stroke-width="1" x1="0" y1="128" x2="512" y2="128" stroke="#449FDB" opacity="1"></line>
    <line stroke-width="1" x1="0" y1="144" x2="512" y2="144" stroke="#449FDB" opacity="0.3"></line>
    <line stroke-width="1" x1="0" y1="160" x2="512" y2="160" stroke="#449FDB" opacity="1"></line>
    <line stroke-width="1" x1="0" y1="176" x2="512" y2="176" stroke="#449FDB" opacity="0.3"></line>
    <line stroke-width="1" x1="0" y1="192" x2="512" y2="192" stroke="#449FDB" opacity="1"></line>
    <line stroke-width="1" x1="0" y1="208" x2="512" y2="208" stroke="#449FDB" opacity="0.3"></line>
    <line stroke-width="1" x1="0" y1="224" x2="512" y2="224" stroke="#449FDB" opacity="1"></line>
    <line stroke-width="1" x1="0" y1="240" x2="512" y2="240" stroke="#449FDB" opacity="0.3"></line>
    <line stroke-width="1" x1="0" y1="256" x2="512" y2="256" stroke="#449FDB" opacity="1"></line>
    <line stroke-width="1" x1="0" y1="272" x2="512" y2="272" stroke="#449FDB" opacity="0.3"></line>
    <line stroke-width="1" x1="0" y1="288" x2="512" y2="288" stroke="#449FDB" opacity="1"></line>
    <line stroke-width="1" x1="0" y1="304" x2="512" y2="304" stroke="#449FDB" opacity="0.3"></line>
    <line stroke-width="1" x1="0" y1="320" x2="512" y2="320" stroke="#449FDB" opacity="1"></line>
    <line stroke-width="1" x1="0" y1="336" x2="512" y2="336" stroke="#449FDB" opacity="0.3"></line>
    <line stroke-width="1" x1="0" y1="352" x2="512" y2="352" stroke="#449FDB" opacity="1"></line>
    <line stroke-width="1" x1="0" y1="368" x2="512" y2="368" stroke="#449FDB" opacity="0.3"></line>
    <line stroke-width="1" x1="0" y1="384" x2="512" y2="384" stroke="#449FDB" opacity="1"></line>
    <line stroke-width="1" x1="0" y1="400" x2="512" y2="400" stroke="#449FDB" opacity="0.3"></line>
    <line stroke-width="1" x1="0" y1="416" x2="512" y2="416" stroke="#449FDB" opacity="1"></line>
    <line stroke-width="1" x1="0" y1="432" x2="512" y2="432" stroke="#449FDB" opacity="0.3"></line>
    <line stroke-width="1" x1="0" y1="448" x2="512" y2="448" stroke="#449FDB" opacity="1"></line>
    <line stroke-width="1" x1="0" y1="464" x2="512" y2="464" stroke="#449FDB" opacity="0.3"></line>
    <line stroke-width="1" x1="0" y1="480" x2="512" y2="480" stroke="#449FDB" opacity="1"></line>
    <line stroke-width="1" x1="0" y1="496" x2="512" y2="496" stroke="#449FDB" opacity="0.3"></line>
</g>
<path d="M22.9 309.8h216.4c11 0 19.9-8.9 19.9-19.9v-205.8c0-11-8.9-19.9-19.9-19.9h-216.4c-11 0-19.9 8.9-19.9 19.9v205.7c0.1 11.1 9 20 19.9 20zM57.9 184.3l65.9-86.3c3.3-4.3 11.5-4.3 14.7 0l65.9 86.3c3.3 4.3-0.8 9.6-7.4 9.6h-46.2v78.9c0 3.6-3.8 6.4-8.5 6.4h-22.3c-4.7 0-8.5-2.9-8.5-6.4v-78.9h-46.3c-6.5 0-10.6-5.4-7.3-9.6z"></path>
<path d="M399 369.3c-22.4 0-40.6 18.2-40.6 40.6s18.2 40.6 40.6 40.6c22.4 0 40.6-18.2 40.6-40.6s-18.2-40.6-40.6-40.6z"></path>
<path d="M94.8 369.3c-22.4 0-40.6 18.2-40.6 40.6s18.2 40.6 40.6 40.6c22.4 0 40.6-18.2 40.6-40.6 0.1-22.4-18.1-40.6-40.6-40.6z"></path>
<path d="M508.4 232l-83.4-118.6c-2.2-3.2-5.2-5.1-8.2-5.7l-0.1-0.2h-1.2c-0.5 0-0.9 0-1.4 0h-125.8c-4.5 0-8.2 4.8-8.2 10.6v214h-270c-5.7 0-10.3 4.6-10.3 10.3v45c0 5.7 4.6 10.3 10.3 10.3h28.9c3.6-27.6 27.2-49 55.9-49 28.6 0 52.3 21.3 55.9 49h192.3c3.6-27.6 27.2-49 55.9-49s52.3 21.3 55.9 49h48.1c4.5 0 8.2-4.8 8.2-10.6v-137.1c1.6-6 0.7-12.9-2.8-18zM478.7 240.1h-155.5v-111h78.2c2.1 0.9 4.1 2.3 5.6 4.4l69.6 97.1c2 3 2.7 6.3 2.1 9.5z"></path>
</svg>

<?xml version="1.0" encoding="utf-8"?>
<!-- Generator: Adobe Illustrator 24.0.3, SVG Export Plug-In . SVG Version: 6.00 Build 0)  -->
<svg version="1.1" id="Layer_1" xmlns="http://www.w3.org/2000/svg" xmlns:xlink="http://www.w3.org/1999/xlink" x="0px" y="0px"
	 viewBox="0 0 512 512" style="enable-background:new 0 0 512 512;" xml:space="preserve">
<title></title>
<path d="M22.9,309.8h216.4c11,0,19.9-8.9,19.9-19.9V84.1c0-11-8.9-19.9-19.9-19.9H22.9C11.9,64.2,3,73.1,3,84.1v205.7
	C3.1,300.9,12,309.8,22.9,309.8z M57.9,184.3L123.8,98c3.3-4.3,11.5-4.3,14.7,0l65.9,86.3c3.3,4.3-0.8,9.6-7.4,9.6h-46.2v78.9
	c0,3.6-3.8,6.4-8.5,6.4H120c-4.7,0-8.5-2.9-8.5-6.4v-78.9H65.2C58.7,193.9,54.6,188.5,57.9,184.3L57.9,184.3z"/>
<path d="M399,369.3c-22.4,0-40.6,18.2-40.6,40.6s18.2,40.6,40.6,40.6s40.6-18.2,40.6-40.6S421.4,369.3,399,369.3z"/>
<path d="M94.8,369.3c-22.4,0-40.6,18.2-40.6,40.6s18.2,40.6,40.6,40.6s40.6-18.2,40.6-40.6C135.5,387.5,117.3,369.3,94.8,369.3z"/>
<path d="M508.4,232L425,113.4c-2.2-3.2-5.2-5.1-8.2-5.7l-0.1-0.2h-1.2c-0.5,0-0.9,0-1.4,0H288.3c-4.5,0-8.2,4.8-8.2,10.6v214h-270
	c-5.7,0-10.3,4.6-10.3,10.3v45c0,5.7,4.6,10.3,10.3,10.3H39c3.6-27.6,27.2-49,55.9-49c28.6,0,52.3,21.3,55.9,49h192.3
	c3.6-27.6,27.2-49,55.9-49s52.3,21.3,55.9,49H503c4.5,0,8.2-4.8,8.2-10.6V250C512.8,244,511.9,237.1,508.4,232L508.4,232z
	 M478.7,240.1H323.2v-111h78.2c2.1,0.9,4.1,2.3,5.6,4.4l69.6,97.1C478.6,233.6,479.3,236.9,478.7,240.1L478.7,240.1z"/>
</svg>
